X: 1
T: Cumming   (G)
C: Nan Main
B: Originally Ours
Z: 2019 John Chambers <jc:trillian.mit.edu>
R: reel
M: 4/4
L: 1/8
K: G
"A"[|]E |\
"G"DEGA "(Em)"B2ed | "Am"c2AG "D7"F3D |\
"C"EG"D7"FA "Em"GB"A(m)"Ae | "D7"d2AB "G"G3 :|
"B1"[|]B |\
"Em"BcBe "B7"^d2Bc | "B7"BcBf "Em"e2ef |\
"Em"g2fe "Am"c2ec | "B7"B2FG "Em"E3 |]
"B2"[|]d |\
"G"dedg "D7"f2de | "D"deda "G"g3g |\
"Am"ecAf "G"dBGe | "D7"cAFd "G"G3 |]
